Origami/48x48/apps/chocolate-doom-setup.svg

<svg width="48" height="48" version="1" xmlns="http://www.w3.org/2000/svg">
 <path d="m16.636523 19a1.6364919 1.7335065 0 0 0 -1.5804 2.183596l5.72715 22.533331a1.6364919 1.7335065 0 0 0 1.580399 1.283073h3.272656a1.6364919 1.7335065 0 0 0 1.5804 -1.283073l5.727149-22.533331a1.6364919 1.7335065 0 0 0 -1.580399 -2.183596z" style="opacity:.2"/>
 <path d="m22.217297 4.0035011c0.116477-0.067026 1.654858 0.8377705 3.237469 1.9037535 2.316804 1.5605162 3.78916 2.9403109 5.079368 4.7685914 0.3188 0.451801 0.58236 0.922209 0.819418 1.399098 0.137853 0.196963 0.268194 0.399122 0.39058 0.606063 2.505186 4.3236 1.145296 9.779763-3.036884 12.186379-4.182182 2.406619-9.602947 0.852353-12.107613-3.471546-0.115216-0.199039-0.223777-0.401808-0.323242-0.609133-0.121038-0.194814-0.254666-0.383261-0.358025-0.584024-1.419242-2.757611-1.130794-5.709759 0.433398-8.222272 0.828129-1.330199 2.488117-2.6864017 3.683455-3.377545 1.491249-0.8622361 1.993957-2.6060213 2.088483-4.1224497 0.01512-0.2427371 0.05872-0.4568448 0.09353-0.4768745z" style="fill:#975a34"/>
 <path d="m16.636523 18a1.6364919 1.7335065 0 0 0 -1.5804 2.183596l5.72715 22.533331a1.6364919 1.7335065 0 0 0 1.580399 1.283073h3.272656a1.6364919 1.7335065 0 0 0 1.5804 -1.283073l5.727149-22.533331a1.6364919 1.7335065 0 0 0 -1.580399 -2.183596z" style="fill:#f1b65c"/>
 <path d="m22.216797 4.0039062c-0.03481 0.0200297-0.07863 0.2338254-0.09375 0.4765626-0.094526 1.5164283-0.596642 3.2608107-2.087891 4.1230468-1.195338 0.6911433-2.855464 2.0467544-3.683594 3.3769534-0.963083 1.54697-1.437023 3.259913-1.332031 4.992187 0.094508-1.387213 0.555079-2.744192 1.332031-3.992187 0.82813-1.330199 2.488256-2.68581 3.683594-3.3769534 1.491249-0.8622361 1.993365-2.6066185 2.087891-4.1230468 0.01512-0.2427372 0.05894-0.4565329 0.09375-0.4765626 0.116477-0.067026 1.65567 0.8383139 3.238281 1.9042969 2.316804 1.5605162 3.787917 2.9392979 5.078125 4.7675779 0.3188 0.451801 0.583255 0.921549 0.820313 1.398438 0.137853 0.196963 0.268239 0.400481 0.390625 0.607422 0.764215 1.318928 1.163812 2.743301 1.238281 4.154297 0.099603-1.729699-0.292735-3.522417-1.238281-5.154297-0.122386-0.206941-0.252772-0.410459-0.390625-0.607422-0.237058-0.476889-0.501513-0.946637-0.820313-1.398438-1.290208-1.8282802-2.761321-3.2070617-5.078125-4.7675779-1.582611-1.065983-3.121804-1.9713228-3.238281-1.9042969z" style="fill:#ffffff;opacity:.1"/>
 <rect x="13" y="19" width="22" height="2" rx="1" ry="1" style="opacity:.2"/>
 <rect x="13" y="18" width="22" height="2" rx="1" ry="1" style="fill:#ffcf88"/>
 <g transform="translate(-2)">
  <circle cx="36" cy="37" r="11" style="opacity:.2"/>
  <circle cx="36" cy="36" r="11" style="fill:#cc5e55"/>
  <path d="m34.488 29.999-0.13345 1.5804a4.7567 4.7143 0 0 0 -1.3902 0.79689l-1.4493-0.67635-1.5135 2.5982 1.3159 0.9057a4.7567 4.7143 0 0 0 -0.07265 0.7952 4.7567 4.7143 0 0 0 0.06922 0.79855l-1.314 0.903 1.5135 2.5982 1.4459-0.67466a4.7567 4.7143 0 0 0 1.393 0.792l0.133 1.584h3.027l0.13344-1.5804a4.7567 4.7143 0 0 0 1.3902 -0.79688l1.4493 0.67634 1.5135-2.5982-1.3159-0.9057a4.7567 4.7143 0 0 0 0.07265 -0.79519 4.7567 4.7143 0 0 0 -0.06922 -0.79855l1.313-0.901-1.5135-2.5982-1.446 0.67467a4.7567 4.7143 0 0 0 -1.393 -0.792l-0.13344-1.5837h-3.027zm1.5135 4.2857a1.7297 1.7143 0 0 1 1.7297 1.7143 1.7297 1.7143 0 0 1 -1.7297 1.7143 1.7297 1.7143 0 0 1 -1.7297 -1.7143 1.7297 1.7143 0 0 1 1.7297 -1.7143z" style="fill:#ffffff"/>
 </g>
</svg>

<svg xmlns="http://www.w3.org/2000/svg" width="48" height="48" version="1">
 <path style="opacity:0.2" d="m 16.636523,19 a 1.6364919,1.7335065 0 0 0 -1.5804,2.183596 l 5.72715,22.533331 A 1.6364919,1.7335065 0 0 0 22.363672,45 h 3.272656 a 1.6364919,1.7335065 0 0 0 1.5804,-1.283073 L 32.943877,21.183596 A 1.6364919,1.7335065 0 0 0 31.363478,19 Z"/>
 <path style="fill:#975a34" d="m 22.217297,4.0035011 c 0.116477,-0.067026 1.654858,0.8377705 3.237469,1.9037535 2.316804,1.5605162 3.78916,2.9403109 5.079368,4.7685914 0.3188,0.451801 0.58236,0.922209 0.819418,1.399098 0.137853,0.196963 0.268194,0.399122 0.39058,0.606063 2.505186,4.3236 1.145296,9.779763 -3.036884,12.186379 -4.182182,2.406619 -9.602947,0.852353 -12.107613,-3.471546 -0.115216,-0.199039 -0.223777,-0.401808 -0.323242,-0.609133 -0.121038,-0.194814 -0.254666,-0.383261 -0.358025,-0.584024 -1.419242,-2.757611 -1.130794,-5.709759 0.433398,-8.222272 0.828129,-1.330199 2.488117,-2.6864017 3.683455,-3.377545 1.491249,-0.8622361 1.993957,-2.6060213 2.088483,-4.1224497 0.01512,-0.2427371 0.05872,-0.4568448 0.09353,-0.4768745 z"/>
 <path style="fill:#f1b65c" d="m 16.636523,18 a 1.6364919,1.7335065 0 0 0 -1.5804,2.183596 l 5.72715,22.533331 A 1.6364919,1.7335065 0 0 0 22.363672,44 h 3.272656 a 1.6364919,1.7335065 0 0 0 1.5804,-1.283073 L 32.943877,20.183596 A 1.6364919,1.7335065 0 0 0 31.363478,18 Z"/>
 <path style="fill:#ffffff;opacity:0.1" d="M 22.216797 4.0039062 C 22.181987 4.0239359 22.138167 4.2377316 22.123047 4.4804688 C 22.028521 5.9968971 21.526405 7.7412795 20.035156 8.6035156 C 18.839818 9.2946589 17.179692 10.65027 16.351562 11.980469 C 15.388479 13.527439 14.914539 15.240382 15.019531 16.972656 C 15.114039 15.585443 15.57461 14.228464 16.351562 12.980469 C 17.179692 11.65027 18.839818 10.294659 20.035156 9.6035156 C 21.526405 8.7412795 22.028521 6.9968971 22.123047 5.4804688 C 22.138167 5.2377316 22.181987 5.0239359 22.216797 5.0039062 C 22.333274 4.9368802 23.872467 5.8422201 25.455078 6.9082031 C 27.771882 8.4687193 29.242995 9.847501 30.533203 11.675781 C 30.852003 12.127582 31.116458 12.59733 31.353516 13.074219 C 31.491369 13.271182 31.621755 13.4747 31.744141 13.681641 C 32.508356 15.000569 32.907953 16.424942 32.982422 17.835938 C 33.082025 16.106239 32.689687 14.313521 31.744141 12.681641 C 31.621755 12.4747 31.491369 12.271182 31.353516 12.074219 C 31.116458 11.59733 30.852003 11.127582 30.533203 10.675781 C 29.242995 8.8475008 27.771882 7.4687193 25.455078 5.9082031 C 23.872467 4.8422201 22.333274 3.9368803 22.216797 4.0039062 z"/>
 <rect style="opacity:0.2" width="22" height="2" x="13" y="19" rx="1" ry="1"/>
 <rect style="fill:#ffcf88" width="22" height="2" x="13" y="18" rx="1" ry="1"/>
 <g transform="translate(-2)">
  <circle style="opacity:0.2" cx="36" cy="37" r="11"/>
  <circle style="fill:#cc5e55" cx="36" cy="36" r="11"/>
  <path style="fill:#ffffff" d="m 34.488,29.999 -0.13345,1.5804 a 4.7567,4.7143 0 0 0 -1.3902,0.79689 l -1.4493,-0.67635 -1.5135,2.5982 1.3159,0.9057 a 4.7567,4.7143 0 0 0 -0.07265,0.7952 4.7567,4.7143 0 0 0 0.06922,0.79855 l -1.314,0.903 1.5135,2.5982 1.4459,-0.67466 a 4.7567,4.7143 0 0 0 1.393,0.792 l 0.133,1.584 h 3.027 l 0.13344,-1.5804 a 4.7567,4.7143 0 0 0 1.3902,-0.79688 l 1.4493,0.67634 1.5135,-2.5982 -1.3159,-0.9057 a 4.7567,4.7143 0 0 0 0.07265,-0.79519 4.7567,4.7143 0 0 0 -0.06922,-0.79855 l 1.313,-0.901 -1.5135,-2.5982 -1.446,0.67467 a 4.7567,4.7143 0 0 0 -1.393,-0.792 l -0.13344,-1.5837 h -3.027 z m 1.5135,4.2857 a 1.7297,1.7143 0 0 1 1.7297,1.7143 1.7297,1.7143 0 0 1 -1.7297,1.7143 1.7297,1.7143 0 0 1 -1.7297,-1.7143 1.7297,1.7143 0 0 1 1.7297,-1.7143 z"/>
 </g>
</svg>
